X: 40522
T: Tommy Hunt's Jig
R: slip jig
M: 9/8
K: Gmajor
|:B2G G2F G2 A2|B2G Bcd g2d|B2G G2F G2D|E2A A2B cBA:|
|:d3 g2f e2d|g2B B2A B2c|1 d3 g2f e2d|e2A A2B cBA|2 d3 g2f e2d|efg a2f g3||

